X: 36711
T: Sheehan's
R: reel
M: 4/4
K: Gmajor
|:G2 BG DGBG|ABcA BGGB|A3B cBAG|EAAG FDEF|
G2 BG DGBd|cBAB cdef|gedB c2Bc|1 dBcA BGGF:|2 dBcA BGBd||
|:g2bg dgbg|gbag fdde|f2af dfaf|gbag fdef|
g2bg dgbg|gbag fdef|gedB c2Bc|1 dBcA BGBd:|2 dBcA BGGF||

